bernoullicharts/2014_sub_x-0_5_bits.svg

<?xml version="1.0" encoding="utf-8" standalone="no"?>
<!DOCTYPE svg PUBLIC "-//W3C//DTD SVG 1.1//EN"
  "http://www.w3.org/Graphics/SVG/1.1/DTD/svg11.dtd">
<!-- Created with matplotlib (https://matplotlib.org/) -->
<svg height="345.6pt" version="1.1" viewBox="0 0 460.8 345.6" width="460.8pt" xmlns="http://www.w3.org/2000/svg" xmlns:xlink="http://www.w3.org/1999/xlink">
 <defs>
  <style type="text/css">
*{stroke-linecap:butt;stroke-linejoin:round;}
  </style>
 </defs>
 <g id="figure_1">
  <g id="patch_1">
   <path d="M 0 345.6 
L 460.8 345.6 
L 460.8 0 
L 0 0 
z
" style="fill:#ffffff;"/>
  </g>
  <g id="axes_1">
   <g id="patch_2">
    <path d="M 57.6 307.584 
L 414.72 307.584 
L 414.72 41.472 
L 57.6 41.472 
z
" style="fill:#ffffff;"/>
   </g>
   <g id="matplotlib.axis_1">
    <g id="xtick_1">
     <g id="line2d_1">
      <defs>
       <path d="M 0 0 
L 0 3.5 
" id="m4893d257ca" style="stroke:#000000;stroke-width:0.8;"/>
      </defs>
      <g>
       <use style="stroke:#000000;stroke-width:0.8;" x="94.478743" xlink:href="#m4893d257ca" y="307.584"/>
      </g>
     </g>
     <g id="text_1">
      <text style="font-family:DejaVu Sans;font-size:10px;font-style:normal;font-weight:normal;text-anchor:middle;" transform="rotate(-0, 94.478743, 322.182437)" x="94.478743" y="322.182437">0.65</text>
     </g>
    </g>
    <g id="xtick_2">
     <g id="line2d_2">
      <g>
       <use style="stroke:#000000;stroke-width:0.8;" x="137.920945" xlink:href="#m4893d257ca" y="307.584"/>
      </g>
     </g>
     <g id="text_2">
      <text style="font-family:DejaVu Sans;font-size:10px;font-style:normal;font-weight:normal;text-anchor:middle;" transform="rotate(-0, 137.920945, 322.182437)" x="137.920945" y="322.182437">0.70</text>
     </g>
    </g>
    <g id="xtick_3">
     <g id="line2d_3">
      <g>
       <use style="stroke:#000000;stroke-width:0.8;" x="181.363147" xlink:href="#m4893d257ca" y="307.584"/>
      </g>
     </g>
     <g id="text_3">
      <text style="font-family:DejaVu Sans;font-size:10px;font-style:normal;font-weight:normal;text-anchor:middle;" transform="rotate(-0, 181.363147, 322.182437)" x="181.363147" y="322.182437">0.75</text>
     </g>
    </g>
    <g id="xtick_4">
     <g id="line2d_4">
      <g>
       <use style="stroke:#000000;stroke-width:0.8;" x="224.805349" xlink:href="#m4893d257ca" y="307.584"/>
      </g>
     </g>
     <g id="text_4">
      <text style="font-family:DejaVu Sans;font-size:10px;font-style:normal;font-weight:normal;text-anchor:middle;" transform="rotate(-0, 224.805349, 322.182437)" x="224.805349" y="322.182437">0.80</text>
     </g>
    </g>
    <g id="xtick_5">
     <g id="line2d_5">
      <g>
       <use style="stroke:#000000;stroke-width:0.8;" x="268.247551" xlink:href="#m4893d257ca" y="307.584"/>
      </g>
     </g>
     <g id="text_5">
      <text style="font-family:DejaVu Sans;font-size:10px;font-style:normal;font-weight:normal;text-anchor:middle;" transform="rotate(-0, 268.247551, 322.182437)" x="268.247551" y="322.182437">0.85</text>
     </g>
    </g>
    <g id="xtick_6">
     <g id="line2d_6">
      <g>
       <use style="stroke:#000000;stroke-width:0.8;" x="311.689753" xlink:href="#m4893d257ca" y="307.584"/>
      </g>
     </g>
     <g id="text_6">
      <text style="font-family:DejaVu Sans;font-size:10px;font-style:normal;font-weight:normal;text-anchor:middle;" transform="rotate(-0, 311.689753, 322.182437)" x="311.689753" y="322.182437">0.90</text>
     </g>
    </g>
    <g id="xtick_7">
     <g id="line2d_7">
      <g>
       <use style="stroke:#000000;stroke-width:0.8;" x="355.131955" xlink:href="#m4893d257ca" y="307.584"/>
      </g>
     </g>
     <g id="text_7">
      <text style="font-family:DejaVu Sans;font-size:10px;font-style:normal;font-weight:normal;text-anchor:middle;" transform="rotate(-0, 355.131955, 322.182437)" x="355.131955" y="322.182437">0.95</text>
     </g>
    </g>
    <g id="xtick_8">
     <g id="line2d_8">
      <g>
       <use style="stroke:#000000;stroke-width:0.8;" x="398.574157" xlink:href="#m4893d257ca" y="307.584"/>
      </g>
     </g>
     <g id="text_8">
      <text style="font-family:DejaVu Sans;font-size:10px;font-style:normal;font-weight:normal;text-anchor:middle;" transform="rotate(-0, 398.574157, 322.182437)" x="398.574157" y="322.182437">1.00</text>
     </g>
    </g>
    <g id="text_9">
     <text style="font-family:DejaVu Sans;font-size:10px;font-style:normal;font-weight:normal;text-anchor:middle;" transform="rotate(-0, 236.16, 335.860562)" x="236.16" y="335.860562">Probability</text>
    </g>
   </g>
   <g id="matplotlib.axis_2">
    <g id="ytick_1">
     <g id="line2d_9">
      <defs>
       <path d="M 0 0 
L -3.5 0 
" id="m83551b2cad" style="stroke:#000000;stroke-width:0.8;"/>
      </defs>
      <g>
       <use style="stroke:#000000;stroke-width:0.8;" x="57.6" xlink:href="#m83551b2cad" y="294.877111"/>
      </g>
     </g>
     <g id="text_10">
      <text style="font-family:DejaVu Sans;font-size:10px;font-style:normal;font-weight:normal;text-anchor:end;" transform="rotate(-0, 50.6, 298.67633)" x="50.6" y="298.67633">50</text>
     </g>
    </g>
    <g id="ytick_2">
     <g id="line2d_10">
      <g>
       <use style="stroke:#000000;stroke-width:0.8;" x="57.6" xlink:href="#m83551b2cad" y="244.473751"/>
      </g>
     </g>
     <g id="text_11">
      <text style="font-family:DejaVu Sans;font-size:10px;font-style:normal;font-weight:normal;text-anchor:end;" transform="rotate(-0, 50.6, 248.27297)" x="50.6" y="248.27297">100</text>
     </g>
    </g>
    <g id="ytick_3">
     <g id="line2d_11">
      <g>
       <use style="stroke:#000000;stroke-width:0.8;" x="57.6" xlink:href="#m83551b2cad" y="194.070391"/>
      </g>
     </g>
     <g id="text_12">
      <text style="font-family:DejaVu Sans;font-size:10px;font-style:normal;font-weight:normal;text-anchor:end;" transform="rotate(-0, 50.6, 197.86961)" x="50.6" y="197.86961">150</text>
     </g>
    </g>
    <g id="ytick_4">
     <g id="line2d_12">
      <g>
       <use style="stroke:#000000;stroke-width:0.8;" x="57.6" xlink:href="#m83551b2cad" y="143.667031"/>
      </g>
     </g>
     <g id="text_13">
      <text style="font-family:DejaVu Sans;font-size:10px;font-style:normal;font-weight:normal;text-anchor:end;" transform="rotate(-0, 50.6, 147.466249)" x="50.6" y="147.466249">200</text>
     </g>
    </g>
    <g id="ytick_5">
     <g id="line2d_13">
      <g>
       <use style="stroke:#000000;stroke-width:0.8;" x="57.6" xlink:href="#m83551b2cad" y="93.26367"/>
      </g>
     </g>
     <g id="text_14">
      <text style="font-family:DejaVu Sans;font-size:10px;font-style:normal;font-weight:normal;text-anchor:end;" transform="rotate(-0, 50.6, 97.062889)" x="50.6" y="97.062889">250</text>
     </g>
    </g>
    <g id="ytick_6">
     <g id="line2d_14">
      <g>
       <use style="stroke:#000000;stroke-width:0.8;" x="57.6" xlink:href="#m83551b2cad" y="42.86031"/>
      </g>
     </g>
     <g id="text_15">
      <text style="font-family:DejaVu Sans;font-size:10px;font-style:normal;font-weight:normal;text-anchor:end;" transform="rotate(-0, 50.6, 46.659529)" x="50.6" y="46.659529">300</text>
     </g>
    </g>
    <g id="text_16">
     <text style="font-family:DejaVu Sans;font-size:10px;font-style:normal;font-weight:normal;text-anchor:middle;" transform="rotate(-90, 25.432812, 174.528)" x="25.432812" y="174.528">Average Bits Consumed Per Call</text>
    </g>
   </g>
   <g id="line2d_15">
    <path clip-path="url(#p320fe38fbf)" d="M 73.832727 194.999829 
M 108.930516 244.816494 
L 117.704963 242.705601 
M 144.028305 228.064433 
L 152.802752 235.772115 
M 170.351646 258.933467 
L 179.126093 266.947601 
M 196.674988 241.33463 
L 205.449435 278.677471 
L 214.223882 262.090734 
L 222.998329 282.088771 
L 231.772776 281.461753 
L 240.547224 272.324632 
M 258.096118 276.457707 
L 266.870565 275.961738 
L 275.645012 268.467767 
L 284.419459 287.691608 
L 293.193907 289.068628 
L 301.968354 287.846851 
L 310.742801 291.272263 
M 328.291695 290.469841 
L 337.066143 293.286381 
L 345.84059 290.159357 
L 354.615037 288.187577 
L 363.389484 295.488 
L 372.163931 291.97791 
L 380.938378 292.891219 
L 389.712826 295.090822 
L 398.487273 289.574678 
" style="fill:none;stroke:#1f77b4;stroke-linecap:square;stroke-width:1.5;"/>
   </g>
   <g id="line2d_16">
    <path clip-path="url(#p320fe38fbf)" d="M 135.253857 104.261684 
M 161.577199 53.568 
M 179.126093 92.162861 
L 187.900541 115.152842 
M 205.449435 136.136769 
M 222.998329 160.052155 
L 231.772776 153.092459 
L 240.547224 164.159021 
L 249.321671 162.62071 
L 258.096118 146.842442 
L 266.870565 170.75178 
L 275.645012 215.630932 
L 284.419459 198.560322 
L 293.193907 188.838522 
L 301.968354 179.18527 
L 310.742801 198.999839 
L 319.517248 179.590514 
L 328.291695 205.895019 
L 337.066143 216.32045 
L 345.84059 207.34462 
L 354.615037 213.955525 
L 363.389484 223.324501 
L 372.163931 219.808363 
L 380.938378 230.760005 
L 389.712826 228.02411 
L 398.487273 224.124906 
" style="fill:none;stroke:#ff7f0e;stroke-linecap:square;stroke-width:1.5;"/>
   </g>
   <g id="line2d_17">
    <path clip-path="url(#p320fe38fbf)" d="M 144.028305 171.784041 
L 152.802752 185.737707 
M 187.900541 182.358666 
M 205.449435 202.886947 
L 214.223882 215.447464 
L 222.998329 219.473684 
M 258.096118 223.0745 
L 266.870565 226.856769 
L 275.645012 239.278173 
M 293.193907 235.973728 
L 301.968354 240.772128 
L 310.742801 247.991906 
L 319.517248 257.264108 
L 328.291695 242.062454 
L 337.066143 262.82259 
L 345.84059 248.87094 
L 354.615037 266.995989 
L 363.389484 258.189513 
L 372.163931 252.991919 
L 380.938378 252.233852 
L 389.712826 252.328611 
L 398.487273 272.070599 
" style="fill:none;stroke:#2ca02c;stroke-linecap:square;stroke-width:1.5;"/>
   </g>
   <g id="patch_3">
    <path d="M 57.6 307.584 
L 57.6 41.472 
" style="fill:none;stroke:#000000;stroke-linecap:square;stroke-linejoin:miter;stroke-width:0.8;"/>
   </g>
   <g id="patch_4">
    <path d="M 414.72 307.584 
L 414.72 41.472 
" style="fill:none;stroke:#000000;stroke-linecap:square;stroke-linejoin:miter;stroke-width:0.8;"/>
   </g>
   <g id="patch_5">
    <path d="M 57.6 307.584 
L 414.72 307.584 
" style="fill:none;stroke:#000000;stroke-linecap:square;stroke-linejoin:miter;stroke-width:0.8;"/>
   </g>
   <g id="patch_6">
    <path d="M 57.6 41.472 
L 414.72 41.472 
" style="fill:none;stroke:#000000;stroke-linecap:square;stroke-linejoin:miter;stroke-width:0.8;"/>
   </g>
   <g id="text_17">
    <text style="font-family:DejaVu Sans;font-size:12px;font-style:normal;font-weight:normal;text-anchor:middle;" transform="rotate(-0, 236.16, 35.472)" x="236.16" y="35.472">Avg. Bits Consumed by 2014 Sub. x-0.5 Algorithm</text>
   </g>
   <g id="legend_1">
    <g id="patch_7">
     <path d="M 296.271563 93.506375 
L 407.72 93.506375 
Q 409.72 93.506375 409.72 91.506375 
L 409.72 48.472 
Q 409.72 46.472 407.72 46.472 
L 296.271563 46.472 
Q 294.271563 46.472 294.271563 48.472 
L 294.271563 91.506375 
Q 294.271563 93.506375 296.271563 93.506375 
z
" style="fill:#ffffff;opacity:0.8;stroke:#cccccc;stroke-linejoin:miter;"/>
    </g>
    <g id="line2d_18">
     <path d="M 298.271563 54.570438 
L 318.271563 54.570438 
" style="fill:none;stroke:#1f77b4;stroke-linecap:square;stroke-width:1.5;"/>
    </g>
    <g id="line2d_19"/>
    <g id="text_18">
     <text style="font-family:DejaVu Sans;font-size:10px;font-style:normal;font-weight:normal;text-anchor:start;" transform="rotate(-0, 326.271563, 58.070438)" x="326.271563" y="58.070438">2014 Sub. x-0.5</text>
    </g>
    <g id="line2d_20">
     <path d="M 298.271563 69.248563 
L 318.271563 69.248563 
" style="fill:none;stroke:#ff7f0e;stroke-linecap:square;stroke-width:1.5;"/>
    </g>
    <g id="line2d_21"/>
    <g id="text_19">
     <text style="font-family:DejaVu Sans;font-size:10px;font-style:normal;font-weight:normal;text-anchor:start;" transform="rotate(-0, 326.271563, 72.748563)" x="326.271563" y="72.748563">2016 Sub. x-0.5</text>
    </g>
    <g id="line2d_22">
     <path d="M 298.271563 83.926688 
L 318.271563 83.926688 
" style="fill:none;stroke:#2ca02c;stroke-linecap:square;stroke-width:1.5;"/>
    </g>
    <g id="line2d_23"/>
    <g id="text_20">
     <text style="font-family:DejaVu Sans;font-size:10px;font-style:normal;font-weight:normal;text-anchor:start;" transform="rotate(-0, 326.271563, 87.426688)" x="326.271563" y="87.426688">2019 Sub. x-0.5</text>
    </g>
   </g>
  </g>
 </g>
 <defs>
  <clipPath id="p320fe38fbf">
   <rect height="266.112" width="357.12" x="57.6" y="41.472"/>
  </clipPath>
 </defs>
</svg>

<svg height="460.8" viewBox="0 0 460.8 345.6" width="614.4" xmlns="http://www.w3.org/2000/svg" xmlns:xlink="http://www.w3.org/1999/xlink"><defs><style>*{stroke-linecap:butt;stroke-linejoin:round}</style></defs><g id="figure_1"><path d="M0 345.6h460.8V0H0z" fill="#fff" id="patch_1"/><g id="axes_1"><path d="M57.6 307.584h357.12V41.472H57.6z" fill="#fff" id="patch_2"/><g id="matplotlib.axis_1"><g id="xtick_1"><g id="line2d_1"><defs><path d="M0 0v3.5" id="m4893d257ca" stroke="#000" stroke-width=".8"/></defs><use x="94.479" xlink:href="#m4893d257ca" y="307.584" stroke="#000" stroke-width=".8"/></g><text x="94.479" y="322.182" font-family="DejaVu Sans" font-size="10" font-weight="400" text-anchor="middle" id="text_1">0.65</text></g><g id="xtick_2"><use x="137.921" xlink:href="#m4893d257ca" y="307.584" stroke="#000" stroke-width=".8" id="line2d_2"/><text x="137.921" y="322.182" font-family="DejaVu Sans" font-size="10" font-weight="400" text-anchor="middle" id="text_2">0.70</text></g><g id="xtick_3"><use x="181.363" xlink:href="#m4893d257ca" y="307.584" stroke="#000" stroke-width=".8" id="line2d_3"/><text x="181.363" y="322.182" font-family="DejaVu Sans" font-size="10" font-weight="400" text-anchor="middle" id="text_3">0.75</text></g><g id="xtick_4"><use x="224.805" xlink:href="#m4893d257ca" y="307.584" stroke="#000" stroke-width=".8" id="line2d_4"/><text x="224.805" y="322.182" font-family="DejaVu Sans" font-size="10" font-weight="400" text-anchor="middle" id="text_4">0.80</text></g><g id="xtick_5"><use x="268.248" xlink:href="#m4893d257ca" y="307.584" stroke="#000" stroke-width=".8" id="line2d_5"/><text x="268.248" y="322.182" font-family="DejaVu Sans" font-size="10" font-weight="400" text-anchor="middle" id="text_5">0.85</text></g><g id="xtick_6"><use x="311.69" xlink:href="#m4893d257ca" y="307.584" stroke="#000" stroke-width=".8" id="line2d_6"/><text x="311.69" y="322.182" font-family="DejaVu Sans" font-size="10" font-weight="400" text-anchor="middle" id="text_6">0.90</text></g><g id="xtick_7"><use x="355.132" xlink:href="#m4893d257ca" y="307.584" stroke="#000" stroke-width=".8" id="line2d_7"/><text x="355.132" y="322.182" font-family="DejaVu Sans" font-size="10" font-weight="400" text-anchor="middle" id="text_7">0.95</text></g><g id="xtick_8"><use x="398.574" xlink:href="#m4893d257ca" y="307.584" stroke="#000" stroke-width=".8" id="line2d_8"/><text x="398.574" y="322.182" font-family="DejaVu Sans" font-size="10" font-weight="400" text-anchor="middle" id="text_8">1.00</text></g><text x="236.16" y="335.861" font-family="DejaVu Sans" font-size="10" font-weight="400" text-anchor="middle" id="text_9">Probability</text></g><g id="matplotlib.axis_2"><g id="ytick_1"><g id="line2d_9"><defs><path d="M0 0h-3.5" id="m83551b2cad" stroke="#000" stroke-width=".8"/></defs><use x="57.6" xlink:href="#m83551b2cad" y="294.877" stroke="#000" stroke-width=".8"/></g><text x="50.6" y="298.676" font-family="DejaVu Sans" font-size="10" font-weight="400" text-anchor="end" id="text_10">50</text></g><g id="ytick_2"><use x="57.6" xlink:href="#m83551b2cad" y="244.474" stroke="#000" stroke-width=".8" id="line2d_10"/><text x="50.6" y="248.273" font-family="DejaVu Sans" font-size="10" font-weight="400" text-anchor="end" id="text_11">100</text></g><g id="ytick_3"><use x="57.6" xlink:href="#m83551b2cad" y="194.07" stroke="#000" stroke-width=".8" id="line2d_11"/><text x="50.6" y="197.87" font-family="DejaVu Sans" font-size="10" font-weight="400" text-anchor="end" id="text_12">150</text></g><g id="ytick_4"><use x="57.6" xlink:href="#m83551b2cad" y="143.667" stroke="#000" stroke-width=".8" id="line2d_12"/><text x="50.6" y="147.466" font-family="DejaVu Sans" font-size="10" font-weight="400" text-anchor="end" id="text_13">200</text></g><g id="ytick_5"><use x="57.6" xlink:href="#m83551b2cad" y="93.264" stroke="#000" stroke-width=".8" id="line2d_13"/><text x="50.6" y="97.063" font-family="DejaVu Sans" font-size="10" font-weight="400" text-anchor="end" id="text_14">250</text></g><g id="ytick_6"><use x="57.6" xlink:href="#m83551b2cad" y="42.86" stroke="#000" stroke-width=".8" id="line2d_14"/><text x="50.6" y="46.66" font-family="DejaVu Sans" font-size="10" font-weight="400" text-anchor="end" id="text_15">300</text></g><text transform="rotate(-90 25.433 174.528)" x="25.433" y="174.528" font-family="DejaVu Sans" font-size="10" font-weight="400" text-anchor="middle" id="text_16">Average Bits Consumed Per Call</text></g><path clip-path="url(#p320fe38fbf)" d="M108.931 244.816l8.774-2.11m26.323-14.642l8.775 7.708m17.549 23.161l8.774 8.015m17.549-25.613l8.774 37.342 8.775-16.586 8.774 19.998 8.775-.627 8.774-9.137m17.55 4.133l8.774-.496 8.774-7.494 8.774 19.224 8.775 1.377 8.774-1.222 8.775 3.425m17.549-.802l8.774 2.816 8.775-3.127 8.774-1.971 8.774 7.3 8.775-3.51 8.774.913 8.775 2.2 8.774-5.516" fill="none" stroke="#1f77b4" stroke-linecap="square" stroke-width="1.5" id="line2d_15"/><path clip-path="url(#p320fe38fbf)" d="M179.127 92.163l8.774 22.99m35.098 44.899l8.774-6.96 8.774 11.067 8.775-1.538 8.774-15.779 8.775 23.91 8.774 44.879 8.774-17.07 8.775-9.722 8.774-9.654L310.743 199l8.774-19.41 8.775 26.305 8.774 10.425 8.775-8.975 8.774 6.61 8.774 9.37 8.775-3.517 8.774 10.952 8.775-2.736 8.774-3.9" fill="none" stroke="#ff7f0e" stroke-linecap="square" stroke-width="1.5" id="line2d_16"/><path clip-path="url(#p320fe38fbf)" d="M144.028 171.784l8.775 13.954m52.646 17.149l8.775 12.56 8.774 4.027m35.098 3.6l8.775 3.783 8.774 12.421m17.549-3.304l8.774 4.798 8.775 7.22 8.774 9.272 8.775-15.202 8.774 20.76 8.775-13.951 8.774 18.125 8.774-8.806 8.775-5.198 8.774-.758 8.775.095 8.774 19.742" fill="none" stroke="#2ca02c" stroke-linecap="square" stroke-width="1.5" id="line2d_17"/><path d="M57.6 307.584V41.472" fill="none" stroke="#000" stroke-linecap="square" stroke-width=".8" id="patch_3"/><path d="M414.72 307.584V41.472" fill="none" stroke="#000" stroke-linecap="square" stroke-width=".8" id="patch_4"/><path d="M57.6 307.584h357.12" fill="none" stroke="#000" stroke-linecap="square" stroke-width=".8" id="patch_5"/><path d="M57.6 41.472h357.12" fill="none" stroke="#000" stroke-linecap="square" stroke-width=".8" id="patch_6"/><text x="236.16" y="35.472" font-family="DejaVu Sans" font-size="12" font-weight="400" text-anchor="middle" id="text_17">Avg. Bits Consumed by 2014 Sub. x-0.5 Algorithm</text><g id="legend_1"><path d="M296.272 93.506H407.72q2 0 2-2V48.472q0-2-2-2H296.272q-2 0-2 2v43.034q0 2 2 2z" fill="#fff" opacity=".8" stroke="#ccc" id="patch_7"/><path d="M298.272 54.57h20" fill="none" stroke="#1f77b4" stroke-linecap="square" stroke-width="1.5" id="line2d_18"/><text x="326.272" y="58.07" font-family="DejaVu Sans" font-size="10" font-weight="400" id="text_18">2014 Sub. x-0.5</text><path d="M298.272 69.249h20" fill="none" stroke="#ff7f0e" stroke-linecap="square" stroke-width="1.5" id="line2d_20"/><text x="326.272" y="72.749" font-family="DejaVu Sans" font-size="10" font-weight="400" id="text_19">2016 Sub. x-0.5</text><path d="M298.272 83.927h20" fill="none" stroke="#2ca02c" stroke-linecap="square" stroke-width="1.5" id="line2d_22"/><text x="326.272" y="87.427" font-family="DejaVu Sans" font-size="10" font-weight="400" id="text_20">2019 Sub. x-0.5</text></g></g></g><defs><clipPath id="p320fe38fbf"><path d="M57.6 41.472h357.12v266.112H57.6z"/></clipPath></defs></svg>
